X: 43
T: Jig for an Unwritten Dance
C: Eric Scott
O: Princeton, New Jersey
P: For Steve Schnur
%R: jig
Z: Collected and edited 2014 by John Chambers <jc:trillian.mit.edu>
B: GEMS The Best of the Country Dance and Song Society Diamond Jubilee Music, Dance and Song Contest 1993 p.70 #2
M: 6/8
L: 1/8
K: Em	% and G
% - - - - - - - - - - - - - - - - - - - - - - - - -
B, |\
"Em"EB,B, "Bm/D"FB,B, | "Am/C"A,B,B, "Bm"FB,B, |\
"Em"EB,B, "Em/G"GFD | "Am"EA,A, A,B,D |\
"Em"EB,B, "Bm/D"FB,B, |
"Am/C"AB,B, "Bm"FB,B, |\
"Am"EFG "G"BGD | "Am"EA,A, A,2 :: A |\
"G"Gdd "G/B"GBB | "Am/C"AGF "D"DEF |
"G"Gdd GBB | "Em"Gee "C"e2d |\
"G"gdd "G/B"GBB | "Am/C"AGE "D"DEF |\
"Em"GAB "D"dAF | "C"EGG "G"G2 :|
% - - - - - - - - - - - - - - - - - - - - - - - - -

